images/svg/layout.svg

<svg version="1" xmlns="http://www.w3.org/2000/svg" width="32" height="32" viewBox="0 0 32 32"><style type="text/css"><![CDATA[
	.st0{fill:#333333;}
]]></style><path class="st0" d="M8.921 8.475v16.255h15.151v-16.255h-15.151zm13.772 14.877h-12.394v-13.5h12.395v13.5zm-5.913-12.057h-5.109v5.878h5.109v-5.878zm4.719.024h-3.562v1.122h3.562v-1.122zm0 4.825h-3.562v1.122h3.562v-1.122zm0-2.413h-3.562v1.122h3.562v-1.122zm-.081 4.826h-9.813v1.12h9.813v-1.12zm0 2.414h-9.813v1.118h9.813v-1.118z"/></svg>

<?xml version="1.0" encoding="utf-8"?>
<!-- Generator: Adobe Illustrator 16.0.0, SVG Export Plug-In . SVG Version: 6.00 Build 0)  -->
<!DOCTYPE svg PUBLIC "-//W3C//DTD SVG 1.0//EN" "http://www.w3.org/TR/2001/REC-SVG-20010904/DTD/svg10.dtd">
<svg version="1.0" id="Layer_1" xmlns="http://www.w3.org/2000/svg" xmlns:xlink="http://www.w3.org/1999/xlink" x="0px" y="0px"
	 width="32px" height="32px" viewBox="0 0 32 32" style="enable-background:new 0 0 32 32;" xml:space="preserve">
<style type="text/css">
<![CDATA[
	.st0{fill:#333333;}
]]>
</style>
<path class="st0" d="M8.921,8.475V24.73h15.151V8.475H8.921z M22.693,23.352H10.299v-13.5h12.395V23.352z M16.78,11.295h-5.109
	v5.878h5.109V11.295z M21.499,11.319h-3.562v1.122h3.562V11.319z M21.499,16.144h-3.562v1.122h3.562V16.144z M21.499,13.731h-3.562
	v1.122h3.562V13.731z M21.418,18.557h-9.813v1.12h9.813V18.557z M21.418,20.971h-9.813v1.118h9.813V20.971z"/>
</svg>
